docs/images/benefits/suitcase-icon.svg

<svg width="32" height="32" viewBox="0 0 32 32" fill="none" xmlns="http://www.w3.org/2000/svg">
<path d="M10.6154 2H21.3846V8.07249L30 8.08696V30H2V8.07249H10.6154L10.6154 2ZM12.7692 8.07249H19.2308V4.43478H12.7692V8.07249ZM4.15385 10.5217V27.5508H27.8462V10.5217H4.15385ZM12.7692 14.1739V23.913H10.6154V14.1739H12.7692ZM21.3846 14.1739V23.913H19.2308V14.1739H21.3846Z" fill="#BC002D"/>
</svg>

<svg width="32" height="32" fill="none" xmlns="http://www.w3.org/2000/svg"><path d="M10.615 2h10.77v6.072L30 8.087V30H2V8.072h8.615V2Zm2.154 6.072h6.462V4.435h-6.462v3.637Zm-8.615 2.45V27.55h23.692V10.52H4.154Zm8.615 3.652v9.739h-2.154v-9.74h2.154Zm8.616 0v9.739H19.23v-9.74h2.154Z" fill="#BC002D"/></svg>
